public/icons/icon/fill-pattern.svg

<svg width="30" height="30" viewBox="0 0 30 30" fill="none" xmlns="http://www.w3.org/2000/svg">
<path fill-rule="evenodd" clip-rule="evenodd" d="M26 4H8V5.99951H22C23.1046 5.99951 24 6.89494 24 7.99951V22H26V4ZM6 4V5.99951H4C2.89543 5.99951 2 6.89494 2 7.99951V25.9995C2 27.1041 2.89543 27.9995 4 27.9995H22C23.1046 27.9995 24 27.1041 24 25.9995V24H26C27.1046 24 28 23.1046 28 22V4C28 2.89543 27.1046 2 26 2H8C6.89543 2 6 2.89543 6 4ZM22 25.9995L4 26V8L22 7.99951V25.9995Z" fill="black"/>
<path fill-rule="evenodd" clip-rule="evenodd" d="M23.4375 15.5525C23.8488 15.9439 23.8488 16.5786 23.4375 16.97L21.9482 18.3875C21.5369 18.7789 20.8701 18.7789 20.4589 18.3875C20.0476 17.996 20.0476 17.3614 20.4589 16.97L21.9482 15.5525C22.3595 15.1611 23.0263 15.1611 23.4375 15.5525ZM18.9695 21.2224C19.3808 20.831 19.3808 20.1964 18.9695 19.8049C18.5583 19.4135 17.8915 19.4135 17.4802 19.8049L15.9909 21.2224C15.5796 21.6138 15.5796 22.2485 15.9909 22.6399C16.4021 23.0313 17.0689 23.0313 17.4802 22.6399L18.9695 21.2224ZM14.5015 24.0574C14.9128 24.4488 14.9128 25.0834 14.5015 25.4748L13.0122 26.8923C12.6009 27.2837 11.9342 27.2837 11.5229 26.8923C11.1116 26.5009 11.1116 25.8663 11.5229 25.4748L13.0122 24.0574C13.4235 23.6659 14.0903 23.6659 14.5015 24.0574ZM14.5015 7.0476C14.9128 7.43903 14.9128 8.07365 14.5015 8.46507L13.0122 9.88256C12.6009 10.274 11.9341 10.274 11.5229 9.88256C11.1116 9.49113 11.1116 8.8565 11.5229 8.46507L13.0122 7.0476C13.4235 6.65618 14.0903 6.65618 14.5015 7.0476ZM10.0335 12.7175C10.4448 12.3261 10.4448 11.6915 10.0335 11.3C9.62228 10.9086 8.95548 10.9086 8.54421 11.3L7.05488 12.7175C6.64361 13.1089 6.64361 13.7436 7.05488 14.135C7.46614 14.5264 8.13294 14.5264 8.54421 14.135L10.0335 12.7175ZM5.56555 15.5525C5.97682 15.9439 5.97682 16.5785 5.56555 16.9699L4.07622 18.3874C3.66495 18.7788 2.99816 18.7788 2.58689 18.3874C2.17563 17.996 2.17563 17.3614 2.58689 16.9699L4.07622 15.5525C4.48749 15.161 5.15429 15.161 5.56555 15.5525ZM23.4375 11.2998C23.8488 10.9083 23.8488 10.2737 23.4375 9.88229C23.0263 9.49086 22.3595 9.49086 21.9482 9.88229L20.4589 11.2998C20.0476 11.6912 20.0476 12.3258 20.4589 12.7172C20.8702 13.1087 21.5369 13.1087 21.9482 12.7172L23.4375 11.2998ZM18.9696 14.1347C19.3808 14.5261 19.3808 15.1608 18.9696 15.5522L17.4802 16.9697C17.069 17.3611 16.4022 17.3611 15.9909 16.9697C15.5796 16.5782 15.5796 15.9436 15.9909 15.5522L17.4802 14.1347C17.8915 13.7433 18.5583 13.7433 18.9696 14.1347ZM14.5016 19.8046C14.9128 19.4132 14.9128 18.7786 14.5016 18.3871C14.0903 17.9957 13.4235 17.9957 13.0122 18.3871L11.5229 19.8046C11.1116 20.196 11.1116 20.8307 11.5229 21.2221C11.9342 21.6135 12.601 21.6135 13.0122 21.2221L14.5016 19.8046ZM10.0336 22.6396C10.4448 23.031 10.4448 23.6656 10.0336 24.057L8.54425 25.4745C8.13298 25.8659 7.46619 25.8659 7.05492 25.4745C6.64365 25.0831 6.64365 24.4485 7.05492 24.057L8.54425 22.6396C8.95551 22.2481 9.62231 22.2481 10.0336 22.6396ZM10.0336 7.04727L8.54424 8.46474C8.13297 8.85617 7.46618 8.85617 7.05491 8.46474C6.64364 8.07332 6.64364 7.43869 7.05491 7.04727C8.15861 5.99681 11.8257 5.34161 10.0336 7.04727ZM5.56558 11.2997C5.97685 10.9083 5.97685 10.2736 5.56558 9.88221C5.15431 9.49079 4.48751 9.49079 4.07625 9.88222L2.58692 11.2997C2.17565 11.6911 2.17565 12.3257 2.58692 12.7172C2.99818 13.1086 3.66498 13.1086 4.07625 12.7172L5.56558 11.2997ZM23.4375 21.2223C23.8488 21.6137 23.8488 22.2484 23.4375 22.6398L21.9482 24.0573C21.5369 24.4487 20.8701 24.4487 20.4589 24.0573C20.0476 23.6658 20.0476 23.0312 20.4589 22.6398L21.9482 21.2223C22.3595 20.8309 23.0263 20.8309 23.4375 21.2223ZM18.9695 26.8922C19.3808 26.5008 19.3808 25.8662 18.9695 25.4747C18.5583 25.0833 17.8915 25.0833 17.4802 25.4747L15.9909 26.8922C14.172 28.6233 17.8497 27.958 18.9695 26.8922ZM18.9695 9.88244C19.3808 9.49101 19.3808 8.85639 18.9695 8.46496C18.5583 8.07354 17.8915 8.07354 17.4802 8.46496L15.9909 9.88244C15.5796 10.2739 15.5796 10.9085 15.9909 11.2999C16.4021 11.6913 17.0689 11.6913 17.4802 11.2999L18.9695 9.88244ZM14.5015 12.7174C14.9128 13.1088 14.9128 13.7434 14.5015 14.1349L13.0122 15.5523C12.6009 15.9438 11.9341 15.9438 11.5229 15.5523C11.1116 15.1609 11.1116 14.5263 11.5229 14.1349L13.0122 12.7174C13.4235 12.326 14.0903 12.326 14.5015 12.7174ZM10.0335 18.3873C10.4448 17.9959 10.4448 17.3612 10.0335 16.9698C9.62228 16.5784 8.95548 16.5784 8.54421 16.9698L7.05488 18.3873C6.64361 18.7787 6.64361 19.4133 7.05488 19.8048C7.46614 20.1962 8.13294 20.1962 8.54421 19.8048L10.0335 18.3873ZM5.56555 21.2222C5.97682 21.6137 5.97682 22.2483 5.56555 22.6397L4.07622 24.0572C3.66495 24.4486 2.99816 24.4486 2.58689 24.0572C2.17563 23.6658 2.17563 23.0311 2.58689 22.6397L4.07622 21.2222C4.48749 20.8308 5.15429 20.8308 5.56555 21.2222Z" fill="black"/>
</svg>

<svg xmlns="http://www.w3.org/2000/svg" width="30" height="30" fill="none"><path fill="#000" fill-rule="evenodd" d="M26 4H8v2h14a2 2 0 0 1 2 2v14h2V4ZM6 4v2H4a2 2 0 0 0-2 2v18a2 2 0 0 0 2 2h18a2 2 0 0 0 2-2v-2h2a2 2 0 0 0 2-2V4a2 2 0 0 0-2-2H8a2 2 0 0 0-2 2Zm16 22H4V8h18v18Z" clip-rule="evenodd"/><path fill="#000" fill-rule="evenodd" d="M23.438 15.553a.968.968 0 0 1 0 1.417l-1.49 1.418a1.091 1.091 0 0 1-1.49 0 .968.968 0 0 1 0-1.418l1.49-1.417a1.091 1.091 0 0 1 1.49 0Zm-4.468 5.67a.968.968 0 0 0 0-1.418 1.091 1.091 0 0 0-1.49 0l-1.49 1.417a.968.968 0 0 0 0 1.418 1.091 1.091 0 0 0 1.49 0l1.49-1.418Zm-4.468 2.834a.968.968 0 0 1 0 1.418l-1.49 1.417a1.091 1.091 0 0 1-1.49 0 .968.968 0 0 1 0-1.417l1.49-1.418a1.091 1.091 0 0 1 1.49 0Zm0-17.01a.968.968 0 0 1 0 1.418l-1.49 1.418a1.091 1.091 0 0 1-1.49 0 .968.968 0 0 1 0-1.418l1.49-1.417a1.091 1.091 0 0 1 1.49 0Zm-4.469 5.67a.968.968 0 0 0 0-1.417 1.091 1.091 0 0 0-1.489 0l-1.49 1.417a.968.968 0 0 0 0 1.418 1.091 1.091 0 0 0 1.49 0l1.49-1.418Zm-4.467 2.835a.968.968 0 0 1 0 1.418l-1.49 1.417a1.091 1.091 0 0 1-1.49 0 .969.969 0 0 1 0-1.417l1.49-1.417a1.091 1.091 0 0 1 1.49 0ZM23.437 11.3a.968.968 0 0 0 0-1.418 1.091 1.091 0 0 0-1.489 0l-1.49 1.418a.968.968 0 0 0 0 1.417 1.091 1.091 0 0 0 1.49 0l1.49-1.417Zm-4.467 2.835a.969.969 0 0 1 0 1.417l-1.49 1.418a1.091 1.091 0 0 1-1.49 0 .968.968 0 0 1 0-1.418l1.49-1.417a1.091 1.091 0 0 1 1.49 0Zm-4.468 5.67a.969.969 0 0 0 0-1.418 1.091 1.091 0 0 0-1.49 0l-1.49 1.418a.968.968 0 0 0 0 1.417 1.091 1.091 0 0 0 1.49 0l1.49-1.417Zm-4.468 2.835a.968.968 0 0 1 0 1.417l-1.49 1.418a1.091 1.091 0 0 1-1.49 0 .968.968 0 0 1 0-1.418l1.49-1.417a1.091 1.091 0 0 1 1.49 0Zm0-15.593-1.49 1.418a1.091 1.091 0 0 1-1.49 0 .968.968 0 0 1 0-1.418c1.105-1.05 4.772-1.705 2.98 0ZM5.566 11.3a.968.968 0 0 0 0-1.418 1.091 1.091 0 0 0-1.49 0L2.586 11.3a.968.968 0 0 0 0 1.417 1.091 1.091 0 0 0 1.49 0l1.49-1.417Zm17.871 9.922a.968.968 0 0 1 0 1.418l-1.489 1.417a1.091 1.091 0 0 1-1.49 0 .968.968 0 0 1 0-1.417l1.49-1.418a1.091 1.091 0 0 1 1.49 0Zm-4.468 5.67a.968.968 0 0 0 0-1.417 1.091 1.091 0 0 0-1.489 0l-1.49 1.417c-1.818 1.731 1.86 1.066 2.98 0Zm0-17.01a.968.968 0 0 0 0-1.417 1.091 1.091 0 0 0-1.489 0l-1.49 1.417a.968.968 0 0 0 0 1.418 1.091 1.091 0 0 0 1.49 0l1.49-1.418Zm-4.468 2.835a.968.968 0 0 1 0 1.418l-1.489 1.417a1.091 1.091 0 0 1-1.49 0 .968.968 0 0 1 0-1.417l1.49-1.418a1.091 1.091 0 0 1 1.49 0Zm-4.467 5.67a.968.968 0 0 0 0-1.417 1.091 1.091 0 0 0-1.49 0l-1.49 1.417a.968.968 0 0 0 0 1.418 1.091 1.091 0 0 0 1.49 0l1.49-1.418Zm-4.468 2.835a.968.968 0 0 1 0 1.418l-1.49 1.417a1.091 1.091 0 0 1-1.49 0 .969.969 0 0 1 0-1.417l1.49-1.418a1.091 1.091 0 0 1 1.49 0Z" clip-rule="evenodd"/></svg>
